svgs/thin/person-from-portal.svg

<svg xmlns="http://www.w3.org/2000/svg" viewBox="0 0 512 512"><!--! Font Awesome Pro 6.0.0-alpha3 by @fontawesome - https://fontawesome.com License - https://fontawesome.com/license (Commercial License) --><path d="M372 104c28.71 0 52-23.29 52-52S400.7 0 372 0C343.3 0 320 23.29 320 52S343.3 104 372 104zM372 16c19.85 0 36 16.15 36 36c0 19.85-16.15 36-36 36c-19.85 0-36-16.15-36-36C336 32.15 352.2 16 372 16zM104.1 475.8C98.5 485 89.77 496 80 496c-30.27 0-64-98.56-64-240s33.73-240 64-240c13.12 0 32.44 21.52 47.25 81.91c1.047 4.297 5.328 6.938 9.672 5.859C141.2 102.7 143.8 98.39 142.8 94.09C127.9 33.42 105.6 0 80 0C28.03 0 0 131.9 0 255.1s28.03 255.1 80 255.1c13.81 0 26.52-9.357 37.77-27.84c2.297-3.766 1.109-8.688-2.672-10.98C111.3 470.9 106.4 472 104.1 475.8zM480 223.1h-44.01l-26.1-53.25c-12.5-25.5-35.39-44.23-61.76-50.98l-71.1-21.13c-7.455-1.781-15.02-2.669-22.51-2.669c-20.88-.002-41.35 6.825-58.28 19.8l-39.71 30.47c-14 10.75-16.64 30.72-5.891 44.85c6.291 8.193 15.79 12.53 25.4 12.53c6.807 0 13.67-2.163 19.47-6.62L235.1 166.6c5.92-4.488 12.99-6.772 19.51-6.772c2.018 0 3.96 .1569 5.819 .6003l14.65 4.333L237.7 252.2C225.1 281.6 236.4 316.3 264 332.5l84.98 50.18L321.5 470.4c-5.25 16.88 4.086 34.86 20.96 40.11C345.6 511.5 348.9 512 352 512c13.62 0 26.3-8.692 30.55-22.44l31.68-101.1c5.875-20.75-2.917-43.13-21.67-54.38l-61.21-36.13l31.27-78.34l20.26 41.48c8 16.25 24.99 26.88 43.11 26.88H480c17.62 0 32-14.37 32-31.1C512 238.2 497.6 223.1 480 223.1zM480 272h-54c-11.93 0-23.49-7.211-28.75-17.89l-20.25-41.5c-2.688-5.51-8.279-8.982-14.38-8.982c-.1992 0-.4004 .0039-.5996 .0098c-6.328 .2363-11.92 4.182-14.27 10.06l-31.25 78.38c-2.922 7.326-.0684 15.69 6.721 19.7l61.03 36.07c12.51 7.508 18.51 22.43 14.72 35.86l-31.77 101.1C365.1 491.5 359 496 352 496c-1.514 0-3.113-.2559-4.746-.7793c-4.062-1.264-7.391-4.045-9.369-7.834c-1.99-3.807-2.383-8.16-1.117-12.23l27.5-87.75c2.225-7.096-.7344-14.79-7.141-18.57L272.1 318.7C251.3 306.5 242.8 280.6 252.3 258.6l37.5-87.5c1.805-4.213 1.717-8.996-.2402-13.14c-1.959-4.143-5.602-7.248-10-8.527l-15.38-4.451c-3.059-.7266-6.271-1.096-9.547-1.096c-10.29 0-20.66 3.564-29.27 10.09L185.8 184.3c-2.816 2.164-6.182 3.307-9.729 3.307c-5.035 0-9.668-2.271-12.67-6.18C157.1 174.4 159.3 164.3 166.2 158.9l39.74-30.49C220.1 117.7 236.8 111.1 254.5 111.1c6.293 0 12.61 .748 17.94 1.996l71.71 21.29c21.84 5.588 41.03 21.49 51.35 42.55l26.04 53.3C424.2 236.6 429.8 240 435.9 240H480c8.822 0 16 7.178 16 16S488.8 272 480 272zM242.4 364.6l-15.5 24.31C222.5 395.8 214.9 400 206.7 400H128c-8.828 0-16-7.188-16-16s7.172-16 16-16h63.13c2.766 0 5.328-1.438 6.797-3.781l24.88-40c2.328-3.75 1.188-8.688-2.578-11C216.5 310.8 211.5 312 209.2 315.8L186.7 352L128 351.1c-17.64 0-31.98 14.37-31.98 32.02S110.4 415.1 128 415.1L206.7 416c13.73 0 26.34-6.906 33.73-18.5l15.5-24.31c2.375-3.75 1.281-8.688-2.453-11.06C249.8 359.8 244.9 360.9 242.4 364.6z"/></svg>

<svg xmlns="http://www.w3.org/2000/svg" viewBox="0 0 512 512"><!-- Font Awesome Pro 6.0.0-alpha2 by @fontawesome - https://fontawesome.com License - https://fontawesome.com/license (Commercial License) --><path d="M372 104C400.709 104 424 80.709 424 52S400.709 0 372 0C343.293 0 320 23.291 320 52S343.293 104 372 104ZM372 16C391.852 16 408 32.148 408 52C408 71.85 391.852 88 372 88C352.15 88 336 71.85 336 52C336 32.148 352.15 16 372 16ZM104.109 475.844C98.5 485.031 89.766 496 80 496C49.734 496 16 397.438 16 256S49.734 16 80 16C93.125 16 112.438 37.516 127.25 97.906C128.297 102.203 132.578 104.844 136.922 103.766C141.219 102.719 143.844 98.391 142.781 94.094C127.906 33.422 105.609 0 80 0C28.031 0 0 131.891 0 256S28.031 512 80 512C93.812 512 106.516 502.641 117.766 484.156C120.062 480.391 118.875 475.469 115.094 473.172C111.328 470.891 106.406 472.047 104.109 475.844ZM480 224H436L409.875 170.75C397.375 145.25 374.5 126.5 348.125 119.75L277 98.625C269.545 96.844 261.998 95.967 254.51 95.967C233.627 95.965 213.18 102.775 196.25 115.75L156.5 146.25C142.5 157 139.875 177 150.625 191.125C156.916 199.318 166.42 203.615 176.027 203.615C182.834 203.615 189.693 201.457 195.5 197L235.125 166.625C241.045 162.137 248.133 159.838 254.66 159.838C256.678 159.838 258.641 160.057 260.5 160.5L275.125 164.75L237.625 252.25C225 281.625 236.375 316.25 264 332.5L349 382.625L321.5 470.375C316.25 487.25 325.625 505.25 342.5 510.5C345.625 511.5 348.875 512 352 512C365.625 512 378.25 503.25 382.5 489.5L414.25 388.5C420.125 367.75 411.25 345.375 392.5 334.125L331.375 298.001L362.625 219.625L382.875 261.125C390.875 277.375 407.875 288 426 288H480C497.625 288 512 273.625 512 256C512 238.25 497.625 224 480 224ZM480 272H426C414.074 272 402.514 264.789 397.254 254.107L377.004 212.607C374.316 207.098 368.725 203.625 362.629 203.625C362.43 203.625 362.229 203.629 362.029 203.635C355.701 203.871 350.107 207.816 347.764 213.699L316.514 292.074C313.592 299.4 316.445 307.762 323.234 311.773L384.268 347.844C396.781 355.352 402.781 370.277 398.986 383.701L367.215 484.775C365.139 491.488 359.025 496 352 496C350.486 496 348.887 495.744 347.254 495.221C343.191 493.957 339.863 491.176 337.885 487.387C335.895 483.58 335.502 479.227 336.768 475.16L364.268 387.408C366.492 380.313 363.533 372.619 357.127 368.842L272.113 318.709C251.346 306.492 242.84 280.639 252.332 258.553L289.832 171.053C291.637 166.84 291.549 162.057 289.592 157.912C287.633 153.77 283.99 150.664 279.59 149.385L264.207 144.934C261.148 144.207 257.936 143.838 254.66 143.838C244.367 143.838 233.998 147.402 225.391 153.926L185.756 184.309C182.939 186.473 179.574 187.615 176.027 187.615C170.992 187.615 166.359 185.344 163.357 181.436C157.986 174.377 159.281 164.287 166.24 158.943L205.982 128.449C220.055 117.666 236.836 111.965 254.51 111.967C260.803 111.967 267.119 112.715 272.445 113.963L344.158 135.25C365.994 140.838 385.189 156.742 395.512 177.797L421.635 231.047C424.324 236.527 429.896 240 436 240H480C488.822 240 496 247.178 496 256S488.822 272 480 272ZM242.438 364.562L226.938 388.875C222.5 395.844 214.938 400 206.703 400H128C119.172 400 112 392.812 112 384S119.172 368 128 368H191.125C193.891 368 196.453 366.562 197.922 364.219L222.797 324.219C225.125 320.469 223.984 315.531 220.219 313.219C216.531 310.844 211.547 312.031 209.203 315.781L186.672 352H128C110.359 352 96 366.344 96 384S110.359 416 128 416H206.703C220.438 416 233.047 409.094 240.438 397.5L255.938 373.188C258.313 369.438 257.219 364.5 253.484 362.125C249.828 359.781 244.859 360.875 242.438 364.562Z"/></svg>
